src/icons/logos/svelte.svg

<svg width="822" height="220" viewBox="0 0 822 220" fill="none" xmlns="http://www.w3.org/2000/svg">
<path d="M273.281 157.922C265.591 158.117 258.021 155.982 251.566 151.797C245.543 147.819 241.072 141.89 238.904 135.004L252.088 130.145C253.919 134.372 256.91 137.994 260.714 140.591C264.581 143.183 269.15 144.525 273.804 144.437C278.273 144.673 282.684 143.34 286.276 140.671C287.837 139.357 289.071 137.697 289.879 135.824C290.686 133.95 291.046 131.913 290.929 129.876C290.948 127.979 290.508 126.106 289.647 124.416C288.9 122.903 287.923 121.515 286.75 120.301C285.263 118.948 283.576 117.832 281.749 116.993C279.501 115.869 277.65 115.014 276.162 114.429C274.674 113.843 272.49 113.052 269.625 112.071C266.017 110.804 263.294 109.823 261.522 109.095C259.087 108.065 256.724 106.876 254.447 105.534C251.987 104.233 249.753 102.544 247.831 100.532C246.174 98.5649 244.839 96.3482 243.874 93.964C242.01 89.4301 241.618 84.4248 242.754 79.656C243.89 74.8872 246.497 70.5962 250.205 67.3899C255.607 62.6312 262.935 60.2518 272.189 60.2518C279.934 60.2518 286.297 61.9559 291.277 65.364C296.126 68.5828 299.684 73.4081 301.327 78.9914L288.381 83.3122C287.06 80.3834 284.843 77.9501 282.05 76.364C278.697 74.5179 274.905 73.6205 271.081 73.7683C267.321 73.5499 263.595 74.5914 260.493 76.7281C259.226 77.7113 258.217 78.9862 257.55 80.4442C256.883 81.9021 256.578 83.4997 256.663 85.1007C256.674 86.327 256.943 87.5372 257.453 88.6525C257.963 89.7678 258.702 90.7633 259.622 91.5741C261.418 93.3343 263.521 94.7505 265.827 95.7525C267.979 96.6547 271.271 97.8576 275.671 99.3928C278.362 100.39 280.419 101.118 281.67 101.624C282.92 102.131 284.835 102.938 287.399 104.109C289.418 105.006 291.361 106.064 293.208 107.275C294.861 108.467 296.447 109.751 297.956 111.121C299.579 112.534 300.968 114.195 302.071 116.043C303.122 117.963 303.935 120.004 304.493 122.121C305.184 124.599 305.525 127.161 305.506 129.734C305.506 138.555 302.493 145.456 296.468 150.436C290.443 155.416 282.714 157.912 273.281 157.922ZM359.73 156.34L327.363 61.8978H342.463L363.909 127.708C365.092 131.25 366.085 134.854 366.884 138.502C367.669 134.852 368.657 131.248 369.844 127.708L391.021 61.8978H405.993L373.753 156.308L359.73 156.34ZM434.578 156.34V61.8978H493.139V75.1137H448.617V101.007H477.343V114.223H448.617V143.029H496.099V156.245L434.578 156.34ZM531.821 156.34V61.8978H545.86V142.823H591.981V156.308L531.821 156.34ZM644.844 75.4144V156.308H630.821V75.3827H604.12V61.8978H671.513V75.3827L644.844 75.4144ZM700.556 156.34V61.8978H759.117V75.1137H714.579V101.007H743.306V114.223H714.579V143.029H762.061V156.245L700.556 156.34Z" fill="black"/>
<path d="M174.899 43.9338C158.438 20.3827 125.929 13.4029 102.425 28.3755L61.1475 54.6806C55.5764 58.1797 50.796 62.8019 47.1115 68.2523C43.4271 73.7026 40.9196 79.8613 39.749 86.3352C37.7751 97.2619 39.5017 108.535 44.6554 118.37C41.1233 123.728 38.7163 129.748 37.5806 136.065C36.4017 142.682 36.5575 149.468 38.0388 156.023C39.5201 162.579 42.2971 168.773 46.2065 174.24C62.667 197.791 95.1763 204.771 118.68 189.799L159.958 163.604C165.522 160.098 170.298 155.473 173.981 150.024C177.665 144.575 180.176 138.42 181.356 131.95C183.323 121.026 181.591 109.759 176.434 99.9309C179.964 94.5699 182.376 88.5514 183.525 82.236C184.7 75.6189 184.542 68.8338 183.061 62.2784C181.58 55.723 178.805 49.5293 174.899 44.0604" fill="black"/>
<path d="M98.3892 176.519C91.8908 178.206 85.0315 177.858 78.737 175.523C72.4425 173.188 67.0158 168.978 63.1893 163.462C60.8398 160.175 59.1715 156.451 58.2827 152.51C57.3938 148.569 57.3024 144.489 58.0137 140.512C58.2472 139.219 58.5752 137.944 58.995 136.698L59.7706 134.324L61.8914 135.906C66.7664 139.465 72.2087 142.173 77.9878 143.915L79.5705 144.374L79.4281 145.957C79.2758 148.127 79.886 150.282 81.1533 152.05C82.308 153.71 83.9434 154.976 85.8393 155.677C87.7353 156.379 89.8007 156.483 91.7576 155.976C92.6524 155.735 93.506 155.362 94.29 154.868L135.504 128.563C136.517 127.926 137.384 127.084 138.052 126.092C138.72 125.1 139.173 123.979 139.382 122.801C139.593 121.601 139.562 120.371 139.29 119.183C139.018 117.995 138.511 116.874 137.799 115.885C136.645 114.225 135.009 112.96 133.113 112.258C131.217 111.556 129.152 111.452 127.195 111.96C126.299 112.197 125.445 112.571 124.663 113.068L108.835 123.118C106.247 124.759 103.424 125.997 100.463 126.79C93.975 128.466 87.1296 128.115 80.8477 125.783C74.5658 123.451 69.1488 119.251 65.3259 113.748C62.9835 110.458 61.3219 106.733 60.4386 102.792C59.5552 98.8514 59.468 94.7737 60.1821 90.7986C60.881 86.8968 62.3864 83.1839 64.6021 79.8971C66.8178 76.6104 69.695 73.8222 73.0497 71.7108L114.391 45.4058C116.964 43.7677 119.771 42.5296 122.716 41.7338C129.212 40.0464 136.069 40.3938 142.362 42.7289C148.654 45.0641 154.078 49.2746 157.9 54.7914C160.252 58.0771 161.923 61.8002 162.815 65.7416C163.706 69.6829 163.8 73.7628 163.091 77.741C162.844 79.0421 162.517 80.3267 162.11 81.587L161.319 83.9611L159.214 82.3784C154.329 78.7923 148.87 76.0628 143.07 74.3065L141.487 73.8475L141.63 72.2647C141.812 70.0839 141.218 67.9087 139.952 66.1237C138.79 64.4928 137.159 63.2543 135.276 62.5729C133.393 61.8915 131.347 61.7996 129.411 62.3093C128.515 62.5469 127.661 62.9205 126.878 63.4173L85.5849 89.6748C84.5764 90.3122 83.7111 91.1519 83.0436 92.1408C82.3762 93.1298 81.9211 94.2464 81.7072 95.4201C81.5003 96.6229 81.5336 97.8548 81.8053 99.0446C82.077 100.234 82.5815 101.359 83.29 102.353C84.4393 103.997 86.0615 105.253 87.9413 105.954C89.8212 106.655 91.8697 106.768 93.8151 106.278C94.7088 106.034 95.5619 105.661 96.3475 105.17L112.175 95.1353C114.762 93.4759 117.592 92.2316 120.563 91.4475C127.058 89.7561 133.915 90.0999 140.207 92.4324C146.5 94.7649 151.925 98.9735 155.748 104.489C158.098 107.776 159.768 111.499 160.66 115.44C161.551 119.381 161.646 123.461 160.939 127.439C160.24 131.341 158.735 135.054 156.519 138.34C154.303 141.627 151.426 144.415 148.071 146.527L106.778 172.832C104.184 174.478 101.356 175.722 98.3892 176.519" fill="white"/>
</svg>

<svg xmlns="http://www.w3.org/2000/svg" width="822" height="220" fill="none">
    <path fill="#000"
        d="M273.281 157.922a38.14 38.14 0 0 1-21.715-6.125 31.44 31.44 0 0 1-12.662-16.793l13.184-4.859a24.384 24.384 0 0 0 8.626 10.446 22.737 22.737 0 0 0 13.09 3.846 19.214 19.214 0 0 0 12.472-3.766 13.14 13.14 0 0 0 3.603-4.847 13.136 13.136 0 0 0 1.05-5.948 11.768 11.768 0 0 0-1.282-5.46 16.318 16.318 0 0 0-2.897-4.115 19.562 19.562 0 0 0-5.001-3.308c-2.248-1.124-4.099-1.979-5.587-2.564-1.488-.586-3.672-1.377-6.537-2.358-3.608-1.267-6.331-2.248-8.103-2.976a59.862 59.862 0 0 1-7.075-3.561 25.885 25.885 0 0 1-6.616-5.002 24.408 24.408 0 0 1-3.957-6.568 23.38 23.38 0 0 1 6.331-26.574c5.402-4.759 12.73-7.138 21.984-7.138 7.745 0 14.108 1.704 19.088 5.112a24.737 24.737 0 0 1 10.05 13.627l-12.946 4.321a15.156 15.156 0 0 0-6.331-6.948 21.056 21.056 0 0 0-10.969-2.596 16.935 16.935 0 0 0-10.588 2.96 9.933 9.933 0 0 0-3.83 8.373 8.729 8.729 0 0 0 2.959 6.473 20.585 20.585 0 0 0 6.205 4.178c2.152.903 5.444 2.106 9.844 3.64 2.691.998 4.748 1.726 5.999 2.232a145.99 145.99 0 0 1 5.729 2.485 40.817 40.817 0 0 1 5.809 3.166 54.4 54.4 0 0 1 4.748 3.846 20.364 20.364 0 0 1 4.115 4.922 26.977 26.977 0 0 1 2.422 6.078 27.582 27.582 0 0 1 1.013 7.613c0 8.821-3.013 15.722-9.038 20.702-6.025 4.98-13.754 7.476-23.187 7.486Zm86.449-1.582-32.367-94.442h15.1l21.446 65.81a104.972 104.972 0 0 1 2.975 10.794c.785-3.65 1.773-7.254 2.96-10.794l21.177-65.81h14.972l-32.24 94.41-14.023.032Zm74.848 0V61.898h58.561v13.216h-44.522v25.893h28.726v13.216h-28.726v28.806h47.482v13.216l-61.521.095Zm97.243 0V61.898h14.039v80.925h46.121v13.485l-60.16.032Zm113.023-80.926v80.894h-14.023V75.383H604.12V61.898h67.393v13.485l-26.669.031Zm55.712 80.926V61.898h58.561v13.216h-44.538v25.893h28.727v13.216h-28.727v28.806h47.482v13.216l-61.505.095ZM174.899 43.934c-16.461-23.551-48.97-30.531-72.474-15.558L61.148 54.68a47.325 47.325 0 0 0-21.399 31.654 49.905 49.905 0 0 0 4.906 32.035 47.383 47.383 0 0 0-7.074 17.695 50.423 50.423 0 0 0 8.625 38.175c16.461 23.551 48.97 30.531 72.474 15.559l41.278-26.195a47.476 47.476 0 0 0 21.398-31.654 49.884 49.884 0 0 0-4.922-32.02 47.702 47.702 0 0 0 7.091-17.694 50.5 50.5 0 0 0-8.626-38.176" />
    <path fill="#fff"
        d="M98.39 176.519a32.804 32.804 0 0 1-35.2-13.057 30.296 30.296 0 0 1-5.176-22.95c.233-1.293.561-2.568.981-3.814l.776-2.374 2.12 1.582a53.47 53.47 0 0 0 16.097 8.009l1.582.459-.142 1.583a9.336 9.336 0 0 0 1.725 6.093 9.896 9.896 0 0 0 10.604 3.926 9.273 9.273 0 0 0 2.533-1.108l41.214-26.305a8.576 8.576 0 0 0 3.878-5.762 9.127 9.127 0 0 0-1.583-6.916 9.886 9.886 0 0 0-10.604-3.925 9.022 9.022 0 0 0-2.532 1.108l-15.828 10.05a30.245 30.245 0 0 1-8.372 3.672 32.794 32.794 0 0 1-35.137-13.042 30.325 30.325 0 0 1-5.144-22.95A28.489 28.489 0 0 1 73.05 71.712l41.341-26.305a30.143 30.143 0 0 1 8.325-3.672A32.78 32.78 0 0 1 157.9 54.79a30.304 30.304 0 0 1 5.191 22.95 31.834 31.834 0 0 1-.981 3.846l-.791 2.374-2.105-1.583a53.465 53.465 0 0 0-16.144-8.072l-1.583-.459.143-1.582a9.28 9.28 0 0 0-1.678-6.141 9.862 9.862 0 0 0-10.541-3.815 9.064 9.064 0 0 0-2.533 1.108L85.585 89.675a8.627 8.627 0 0 0-3.878 5.745 9.243 9.243 0 0 0 1.583 6.933 9.893 9.893 0 0 0 10.525 3.925 9.497 9.497 0 0 0 2.532-1.108l15.828-10.035a29.459 29.459 0 0 1 8.388-3.688 32.761 32.761 0 0 1 35.185 13.042 30.34 30.34 0 0 1 5.191 22.95 28.477 28.477 0 0 1-12.868 19.088l-41.293 26.305a30.359 30.359 0 0 1-8.389 3.687" />
</svg>
